src/social-euro.svg

<?xml version="1.0" encoding="utf-8"?>
<!-- Generated by IcoMoon.io -->
<!DOCTYPE svg PUBLIC "-//W3C//DTD SVG 1.1//EN" "http://www.w3.org/Graphics/SVG/1.1/DTD/svg11.dtd">
<svg version="1.1" xmlns="http://www.w3.org/2000/svg" xmlns:xlink="http://www.w3.org/1999/xlink" width="512" height="512" viewBox="0 0 512 512">
<path fill="#000000" d="M234 272v-48h131.094l7.149-48h-138.243v-1.83c0-35.92 14.975-58.086 79.25-58.086 26.264 0 55.867 2.498 93.189 8.742l9.561-64.96c-38.012-8.743-70.694-11.866-105.943-11.866-114.731 0-164.057 41.225-164.057 117.43v10.57h-50v48h50v48h-50v48h50v26.57c0 76.204 49.297 117.43 164.027 117.43 35.25 0 67.848-3.123 105.859-11.866l-9.619-64.96c-37.322 6.244-66.781 8.742-93.045 8.742-64.276 0-79.223-18.739-79.223-63.086v-12.83h116.795l7.148-48h-123.942z"></path>
</svg>

<?xml version="1.0" encoding="utf-8"?>
<!-- Generator: Adobe Illustrator 16.2.1, SVG Export Plug-In . SVG Version: 6.00 Build 0)  -->
<!DOCTYPE svg PUBLIC "-//W3C//DTD SVG 1.1//EN" "http://www.w3.org/Graphics/SVG/1.1/DTD/svg11.dtd">
<svg version="1.1" id="Layer_1" xmlns="http://www.w3.org/2000/svg" xmlns:xlink="http://www.w3.org/1999/xlink" x="0px" y="0px"
	 width="512px" height="512px" viewBox="0 0 512 512" enable-background="new 0 0 512 512" xml:space="preserve">
<g>
	<path d="M234,272v-48h131.094l7.149-48H234v-1.83c0-35.92,14.975-58.086,79.25-58.086c26.264,0,55.867,2.498,93.189,8.742
		L416,59.866C377.988,51.123,345.306,48,310.057,48C195.326,48,146,89.225,146,165.43V176H96v48h50v48H96v48h50v26.57
		C146,422.774,195.297,464,310.027,464c35.25,0,67.848-3.123,105.859-11.866l-9.619-64.96c-37.322,6.244-66.781,8.742-93.045,8.742
		c-64.276,0-79.223-18.739-79.223-63.086V320h116.795l7.148-48H234z"/>
</g>
</svg>
